X:1
T:176 - Tempo de Ser Santo
T:Letra: William Dunn Longstaff (1822-1894)
T:Trad.: Salomão Luiz Ginsburg (1867-1927)
T:Música: George Coles Stebbins (1890)
L:1/8
Q:1/4=113
M:6/8
I:linebreak$
K:F
V:1
"F"A3AGA|"Bb"B3"F"A3|F3"C7"GFE|"F"F6|A3AGA|"Bb"B3"F"A3|"G7"G3GGG|"C7"G6|"Bb"B3BAG|"F"A3c3|"Bb"B3"C7"BAG|"F"A6|c3cBA|"Bb"d3B3|"F/C"A3"C7"GFE|"F"F6|]
w: 1.~Tem-po de ser san-to tu de-ves to-mar, Vi-ver com teu Mes-tre, seu li-vroes-tu-dar, An-dar com seu po-vo, eaos fra-cos va-ler, As bên-çãos ce-les-tes de Deus sem-preob-ter.
w: 2.~Tem-po de ser pu-ro tu de-ves a-char, A sós, sem-preo-ran-do, com Cris-to fi-car, Teus o-lhos bem fi-tos em Deus sem-pre ter, Na tu-a con-du-ta pro-var seu po-der.
w: 3.~Tem-po de ser for-te tu de-ves bus-car, O Mes-tre se-guin-do por on-de gui-ar; No go-zoou tris-te-za sem-preo-be-de-cer, Da fon-te di-vi-na ja-mais tees-que-cer.
w: 4.~Tem-po de ser ú-til tu de-ves guar-dar, Mui cal-mo nas lu-tas, em Deus con-fi-ar; So-cor-reos a-fli-tos, re-ple-to dea-mor, Os pas-sos se-guin-do do teu Sal-va-dor.
W: 
W: 
W: 1. Tempo de ser santo tu deves tomar,
W: Viver com teu Mestre, seu livro estudar,
W: Andar com seu povo, e aos fracos valer,
W: As bênçãos celestes de Deus sempre obter.
W: 
W: 2. Tempo de ser puro tu deves achar,
W: A sós, sempre orando, com Cristo ficar,
W: Teus olhos bem fitos em Deus sempre ter,
W: Na tua conduta provar seu poder
W: 
W:
W:
W: 3. Tempo de ser forte tu deves buscar,
W: O Mestre seguindo por onde guiar;
W: No gozo ou tristeza sempre obedecer,
W: Da fonte divina jamais te esquecer.
W: 
W: 4. Tempo de ser útil tu deves guardar,
W: Mui calmo nas lutas, em Deus confiar;
W: Socorre os aflitos, repleto de amor,
W: Os passos seguindo do teu Salvador.
W:
W:





